X:628
%%etbk:tnset id:409,pos:2,rep:3x,ant:
%%etbk:wsite https://thesession.org/tunes/556
%%etbk:color #ffffcc
%%etbk:pldat 2016-09-16T17:00,2016-09-15T18:27,2016-09-13T17:15,2016-09-10T14:47,2016-09-08T19:01,2016-07-15T14:41,2016-07-07T16:39,2016-06-12T15:32,2016-05-29T14:50,2016-05-16T13:15,2015-07-15T17:48,2015-07-11T15:09,2015-07-07T16:46,2015-06-09T18:42,2015-06-04T19:10,2015-05-25T16:04,2015-04-07T18:10,2015-04-06T12:38,2015-03-27T17:16,2015-01-31T16:52,2015-01-27T16:08,2015-01-26T18:39
T: Sweeny's Buttermilk
Z: Piano Box Version by Martin Fleischmann
H: Created 2015-01-26 /  Last Modified 2016-05-26
R: reel
M: 4/4
L: 1/8
K: Bmin
|:!1!F!3!B B2 !1!FB !3!B2 |!5!dcBc !2!AE E2 |!2!F!4!B !2!B2 !1!AB!2!c!3!e |!5!a!4!f!3!e!2!c !1!B!5!a^ga |
!4!f2 !3!e!2!c !4!f2 !3!e!2!c |!1!BBB!3!c !2!B!1!A!2!F!1!E |!2!F!4!B !2!B2 !1!Az!2!c!3!e |!5!af!3!ec !1!B2 !3!B!2!A :|
|:!1!F!2!B!4!dc B!1!F !2!F2 |!1!E!3!A!5!cB A!1!E !1!E2 |!1!F!2!B!4!dc !2!B!4!d!2!f!5!b |!4!a!2!f!1!e!2!c !1!B3 c |
Bcde fB B2 |!5!a!3!f!1!e!3!c !1!A!!Bc!4!e |!2!f3a bf f2 |!4!a!2!f!1!e!2!c !1!B2 BA :|


